X:41
T:Lous Dolhaires
M:6/8
L:1/8
N:Modre
N:La Bourre 4th edition 1929, page 51
Z:Steve Mansfield www.lesession.co.uk May 2012
K:Cm
G c d e2 d | B3 c3 | G c d (ed) B |
c6 | G c d (ed) e | f e d (c2 d/c/ | B3) (G3 | G6) |
G c d (ed) e | (f3 f) e2 | c2 (d/c/ B3) | !fermata! c6 |]

